X: 1
T: Spelmansvals
O: efter Hammarbergs-Hans
R: waltzo
N: Armkroksvals Fr\aan Hedesunda
M: 3/4
L: 1/8
K: D
A2 \
| "D"d2 "A7"cd ec | "D"d2 A2 d2 | "D"f2 "A7"ef ge | "D"f2 d2 f2 |
| "D"a4 gf | "A7"g4 fe | "D"d2 "A7"cd ec | "D"d4 :|
|: d2 \
| "A7"ce ce A2 | "D"df df A2 | "A7"gf ed ce | ea ^ga fd |
| "A7"ce ce A2 | "D"df df A2 | "A7"gf ed ce | "D"d4 :|
